T: Mingulay Boat Song
%%vocalfont times 10
%%notecolors 1
%%notelabels 1
M: 3/4
Q: 1/4=140
K: G
P: Chorus
"D"D2 E1 | "G"G3 G3 | d2 B (B2 A) | G3
w: Heave her ho, boys, let her go, ~ boys
d2 B | "D"A3 A2 G | (B A G) "C"E3 | E3
w: Swing her head round in-to ~  the wea-ther
"D"D2 E | "G"G3 G3 | d2 B B2 A | G3
w: Heave her ho, boys, let her go, ~ boys
d2 B | "D"A3 A2 G | (B2 A "G"G3) |
w: Sail-ing home-ward to Min-gu-lay
P: Verse
"D"D2 E1 | "G"G3 G3 | d2 B (B2 A) | G3
w: What care we, though, whi-te the Minch is?
d2 B | "D"A3 A2 G | (B A G) "C"E3 | E3
w: What care we, boys, for win-dy ~ weath-er?
"D"D2 E | "G"G3 G3 | d2 B B2 A | G3
w: When we know that e-ver-y inch is
d2 B | "D"A3 A2 G | (B2 A "G"G3) |
w: Sail-ing home-ward to Min-gu-lay
W: What care we, though, white the Minch is?
W: What care we, boys, for windy weather?
W: When we know that every inch is
W: Sailing homeward to Mingulay
W: 
W: Wives are waiting by the pier head
W: Gazing seaward from the heather
W: Bring her round, boys, then we'll anchor
W: 'Ere the sun sets on Mingulay
W: 
W: Ships return now, heavy laden
W: Mothers holdin' bairns a-cryin'
W: They'll return yet when the sun sets
W: Sailing homeward to Mingulay

